X:1
T:Sterling, LM
T:Sterling, LM
T:Ralph Harrison, 1786
T:Public Domain Courtesy of the Cyber Hymnal™
C:Ralph Harrison, 1786
Z:Public Domain
Z:Courtesy of the Cyber Hymnal™
%%score ( 1 2 ) ( 3 4 )
L:1/8
Q:1/4=125
M:4/4
K:A
V:1 treble 
V:2 treble 
V:3 bass 
V:4 bass 
V:1
 A4 | A2 A2 [FA]2 [FA]2 | [GB]6 (AB) | [Ac]8 | [Ec]4 [Ec]2 [Ec]2 | [Fd]4 [Ac]4 | [GB]6 [EB]2 | %7
 !fermata![EA]4 [Ec]4 | [Ec]2 [Ec]2 [Ec]2 [Ec]2 | [Fd]4 [Ac]4 | [GB]8 | [Ae]4 [Ae]2 [Ae]2 | %12
 [Fd]4 [Fc]4 | [EB]6 [EB]2 | !fermata![EA]4 |] %15
V:2
 A4 | A2 A2 x4 | x6 G2 | x8 | x8 | x8 | x8 | x8 | x8 | x8 | x8 | x8 | x8 | x8 | x4 |] %15
V:3
 [A,C]4 | [F,C]2 [F,C]2 [A,C]2 [A,C]2 | [E,B,]6 (CD) | [A,E]8 | [A,E]4 [A,C]2 A,2 | [F,B,]4 C4 | %6
 [E,E]6 [E,E]2 | !fermata![A,,C]4 [A,C]4 | [A,E]2 [A,E]2 [A,E]2 [A,E]2 | [D,A,]4 [A,C]4 | [E,E]8 | %11
 [C,C]4 [C,C]2 [C,C]2 | [D,A,]4 [A,C]4 | [E,E]6 [E,E]2 | !fermata![A,,C]4 |] %15
V:4
 x4 | x8 | x6 E,2 | x8 | x6 A,2 | x4 (C,2 D,2) | x8 | x8 | x8 | x8 | x8 | x8 | x8 | x8 | x4 |] %15

